X: 071875
T: Gus Teahan's
S: "The Killavil Sessions" (Ceoltoiri Coleman)
L: 1/8
M: 4/4
R: reel
K: Edor
A | B2 BA B2 Bc | dBAF DEFA | B2 BA Bffe | dBAF EFGF |
B2 BA B2 Bc | dBAF DEFA | B2 BA Bffe | dBAF E3 || 
A | B2 Ad gfec | d2 Bd ADFA | (3Bcd ef gfec | dBAF EFGA |
B2 Ad gfec | d2 Bd ADFA | B2 ed BAFA | DEFD E4 |]
